X: 1
T: String Quartet in G major opus 9 no 3 mvt 4
C: Franz Joseph Haydn
%%abc-version 2.0
%%abcx-abcm2ps-target-version 5.9.1 (29 Sep 2008)
%%abc-creator hum2abc beta
%%abcx-conversion-date 2021/02/14 14:38:17
%%abc-copyright Copyright (c) 1994, 2000 Center for Computer Assisted Research in the Humanities
%%abc-edited-by Frances Bennion
%%abcx-initial-encoding-date 1997/04/15
%%gracespace 0 6 6
%%humdrum-veritas 2911632564
%%humdrum-veritas-data 3986088923
%%linebreak <none>
%%barnumbers 0
L: 1/8
M: 2/4
N: Derived from op09n3-04.krn
Q: "Presto" 1/4=144
%%staves [1 2 3 4]
V: 1
V: 2
V: 3 clef=alto
V: 4 clef=bass
K: G
[V:1]z3 B/c/ [I:setbarnb1]|
[V:2]z3 G/A/ |
[V:3]z3 z |
[V:4]z3 z |
[V:1]dB cd |
[V:2]BG AB |
[V:3]z4 |
[V:4]z4 |
[V:1]e2 zA/B/ |
[V:2]c2 zF/G/ |
[V:3]z2 G,2 |
[V:4]z2 G,,2 |
[V:1]cA Bc |
[V:2]AF GA |
[V:3]z4 |
[V:4]z4 |
[V:1]d2 zD |
[V:2]B2 z2 |
[V:3]z4 |
[V:4]z4 |
[V:1]GG GG |
[V:2]DD DD |
[V:3]B,B, B,B, |
[V:4]G,G, G,G, |
[V:1]F>G FD |
[V:2]D4 |
[V:3]C4 |
[V:4]A,4 |
[V:1]GA Bc |
[V:2]DD DA |
[V:3]DD DE |
[V:4]B,F, G,C, |
[V:1]B2 AD |
[V:2]G2 FD |
[V:3]D4 |
[V:4]D,4 |
[V:1]GG GG |
[V:2]DD DD |
[V:3]B,B, B,B, |
[V:4]G,,G, G,G, |
[V:1]F>G FD |
[V:2]D4 |
[V:3]C4 |
[V:4]A,4 |
[V:1]GA B^c |
[V:2]DD DG |
[V:3]B,F GE |
[V:4]B,F, G,E, |
[V:1]d2 za |
[V:2]F2 z2 |
[V:3]D2 z2 |
[V:4]D,2 z2 |
[V:1]^ga fd |
[V:2]z4 |
[V:3]z4 |
[V:4]z4 |
[V:1]^c2 db |
[V:2]G2 Fz |
[V:3]E2 Fz |
[V:4]A,2 Dz |
[V:1]^ab ge |
[V:2]z4 |
[V:3]z4 |
[V:4]z4 |
[V:1]^d2 eg |
[V:2]A2 Gz |
[V:3]F2 Gz |
[V:4]B,,2 E,z |
[V:1]fg e^c |
[V:2]z4 |
[V:3]z4 |
[V:4]z4 |
[V:1]Ag A2- |
[V:2]^C3 D |
[V:3]A,3 B, |
[V:4]z4 |
[V:1]A_B A^G |
[V:2]E=F ED |
[V:3]^CD CB, |
[V:4]z4 |
[V:1]Ag A2- |
[V:2]^C3 D |
[V:3]A,3 B, |
[V:4]z4 |
[V:1]A_B A^G |
[V:2]E=F ED |
[V:3]^CD CB, |
[V:4]z4 |
[V:1]A/_B/A/^G/ A/B/A/G/ |
[V:2]E/=F/E/D/ E/F/E/D/ |
[V:3]^C/D/C/B,/ C/D/C/B,/ |
[V:4]z4 |
[V:1]A/_B/A/^G/ A/B/A/G/ |
[V:2]E/=F/E/D/ E/F/E/D/ |
[V:3]^C/D/C/B,/ C/D/C/B,/ |
[V:4]z4 |
[V:1]A2 _B2- |
[V:2]E4- |
[V:3]^C4- |
[V:4]z4 |
[V:1]B2 A2 |
[V:2]E4- |
[V:3]C4- |
[V:4]z4 |
[V:1]G4- |
[V:2]E4- |
[V:3]C4- |
[V:4]A,/_B,/A,/^G,/ A,/B,/A,/G,/ |
[V:1]G4- |
[V:2]E4- |
[V:3]C4- |
[V:4]A,/_B,/A,/^G,/ A,/B,/A,/G,/ |
[V:1]G4- |
[V:2]E4- |
[V:3]C4- |
[V:4]A,2 _B,2- |
[V:1]G2 _B2 |
[V:2]E2 ^C2 |
[V:3]C2 ^C2 |
[V:4]B,2 G,2 |
[V:1]A2 zd |
[V:2]D2 zA |
[V:3]D2 zF |
[V:4]F,2 zD |
[V:1]dd dd |
[V:2]AA AA |
[V:3]FF FF |
[V:4]DD DD |
[V:1]^c>d cA |
[V:2]A4 |
[V:3]G4 |
[V:4]E4 |
[V:1]dd dd |
[V:2]AA AA |
[V:3]FF FF |
[V:4]DD DD |
[V:1]e//f//g3/ zf |
[V:2]e2 zA |
[V:3]A,2 zD |
[V:4]^C2 zD |
[V:1]e2 d^c |
[V:2]G2 FE |
[V:3]G,2 A,2 |
[V:4]G,2 A,2 |
[V:1]d2 zd' |
[V:2]F2 z2 |
[V:3]D2 z2 |
[V:4]D,2 z2 |
[V:1]^c'd' ba |
[V:2]z2 f2 |
[V:3]z2 d2- |
[V:4]z4 |
[V:1]^g2 ac' |
[V:2]e2 ez |
[V:3]dB cz |
[V:4]z4 |
[V:1]bc' ag |
[V:2]z2 e2 |
[V:3]z2 c2- |
[V:4]z4 |
[V:1]f2 gb |
[V:2]d2 dz |
[V:3]cA Bz |
[V:4]z4 |
[V:1]^ab ge |
[V:2]z2 B2 |
[V:3]z2 G2 |
[V:4]z2 G,2- |
[V:1]^c2 da- |
[V:2]A3 f- |
[V:3]E2 D2 |
[V:4]G,E, F,2 |
[V:1]ag fe |
[V:2]fe d^c |
[V:3]G2 A2 |
[V:4]G,2 A,2 |
[V:1]d2 z2 |
[V:2]d2 z2 |
[V:3]D2 D,2 |
[V:4]D,2 zD |
[V:1]z2 f2 |
[V:2]z2 d2- |
[V:3]z2 B,2- |
[V:4]^CD B,A, |
[V:1]e2 ez |
[V:2]dB cz |
[V:3]B,2 A,z |
[V:4]^G,2 A,C |
[V:1]z2 e2 |
[V:2]z2 c2- |
[V:3]z2 A,2- |
[V:4]B,C A,G, |
[V:1]d2 dz |
[V:2]cA Bz |
[V:3]A,2 G,z |
[V:4]F,2 G,B, |
[V:1]z2 B2- |
[V:2]z2 G2- |
[V:3]z2 G,2 |
[V:4]^A,B, G,E, |
[V:1]Bb2 a- |
[V:2]Gg2 f- |
[V:3]^C2 D2 |
[V:4]^C,2 D,2 |
[V:1]ag fe |
[V:2]fe d^c |
[V:3]G,2 A,2 |
[V:4]G,,2 A,,2 |
[V:1]d/e/f/e/ d/^c/B/A/ |
[V:2]d4- |
[V:3]F,4 |
[V:4]B,,4- |
[V:1]^G4 |
[V:2]dD DD |
[V:3]B,4 |
[V:4]B,,B,, B,,B,, |
[V:1]G/^c/e/d/ c/B/A/G/ |
[V:2]E2 zE |
[V:3]A,2 zA, |
[V:4]^C,2 zC, |
[V:1]F/A/d/^c/ B/A/G/F/ |
[V:2]A,2 zA, |
[V:3]A,2 zF, |
[V:4]D,2 zF, |
[V:1]EB A^C |
[V:2]B,G FE |
[V:3]G,2 A,2 |
[V:4]G,2 A,2 |
[V:1]D2 zF/G/ |
[V:2]D2 zD/E/ |
[V:3]D,2 z2 |
[V:4]D,2 z2 |
[V:1]AF GA |
[V:2]FD EF |
[V:3]z4 |
[V:4]z4 |
[V:1]B2 z2 |
[V:2]G2 z2 |
[V:3]z3 E/F/ |
[V:4]z3 ^C,/D,/ |
[V:1]z4 |
[V:2]z4 |
[V:3]GE FG |
[V:4]E,^C, D,E, |
[V:1]z3 A |
[V:2]z4 |
[V:3]A2 z2 |
[V:4]F,2 z2 |
[V:1]dd dd |
[V:2]AA AA |
[V:3]FF FF |
[V:4]D,D, D,D, |
[V:1]^c>d cA |
[V:2]A4 |
[V:3]G4 |
[V:4]E,4 |
[V:1]de fg |
[V:2]AA Ae |
[V:3]AA AB |
[V:4]F,^C, D,G,, |
[V:1]f2 eA |
[V:2]d2 ^cA |
[V:3]A4 |
[V:4]A,,4 |
[V:1]dd dd |
[V:2]AA AA |
[V:3]FF FF- |
[V:4]D,,D, D,D, |
[V:1]c>d cA |
[V:2]A4 |
[V:3]F4 |
[V:4]^D,4 |
[V:1]Ge2 g |
[V:2]B,G2 e |
[V:3]E2 ^A,2 |
[V:4]E,2 ^A,,2 |
[V:1]gf zb |
[V:2]e^d z2 |
[V:3]B,2 z2 |
[V:4]B,,2 z2 |
[V:1]^ab ge |
[V:2]z4 |
[V:3]z4 |
[V:4]z4 |
[V:1]^d2 eg |
[V:2]A2 Gz |
[V:3]F2 Ez |
[V:4]B,2 E,z |
[V:1]fg ec |
[V:2]z4 |
[V:3]z4 |
[V:4]z4 |
[V:1]^A2 Bf |
[V:2]E2 ^Dz |
[V:3]GE Fz |
[V:4]C2 B,z |
[V:1]^ef ^dA |
[V:2]z2 ^D2 |
[V:3]z2 F2 |
[V:4]z2 B,2 |
[V:1]Ge2 g |
[V:2]EG2 B |
[V:3]E2 G,2 |
[V:4]C2 G,2 |
[V:1]gf e^d |
[V:2]BA GF |
[V:3]A,2 B,2 |
[V:4]A,2 B,2 |
[V:1]e2 zG/A/ |
[V:2]E2 zE/F/ |
[V:3]E2 z2 |
[V:4]E,2 z2 |
[V:1]BG AB |
[V:2]GE FG |
[V:3]z4 |
[V:4]z4 |
[V:1]c2 zA/B/ |
[V:2]A2 zF/G/ |
[V:3]z4 |
[V:4]z4 |
[V:1]cA Bc |
[V:2]AF GA |
[V:3]z4 |
[V:4]z4 |
[V:1]d2 zD |
[V:2]B2 z2 |
[V:3]z4 |
[V:4]z4 |
[V:1]GG GG |
[V:2]DD DD |
[V:3]B,B, B,B, |
[V:4]G,G, G,G, |
[V:1]F>G FD |
[V:2]D4 |
[V:3]C4 |
[V:4]A,4 |
[V:1]GA Bc |
[V:2]DD DA |
[V:3]DD DE |
[V:4]B,F, G,C, |
[V:1]B2 Ad |
[V:2]G2 FB |
[V:3]D4- |
[V:4]D,2 z2 |
[V:1]c2 Be |
[V:2]A2 Gc |
[V:3]D4- |
[V:4]D,2 z2 |
[V:1]d2 cg |
[V:2]B2 AB |
[V:3]D4- |
[V:4]D,2 z2 |
[V:1]fe d^c |
[V:2]AG FE |
[V:3]D4- |
[V:4]D,2 z2 |
[V:1]dz2 d' |
[V:2]D2 z2 |
[V:3]D2 z2 |
[V:4]D,2 z2 |
[V:1]^c'd' ba |
[V:2]z4 |
[V:3]z4 |
[V:4]z4 |
[V:1]^g2 ac' |
[V:2]d2 cz |
[V:3]B2 Az |
[V:4]E,2 A,,z |
[V:1]bc' af |
[V:2]z4 |
[V:3]z4 |
[V:4]z4 |
[V:1]dc' d2- |
[V:2]F3 G |
[V:3]D3 E |
[V:4]z4 |
[V:1]d_e d^c |
[V:2]A_B AG |
[V:3]FG FE |
[V:4]z4 |
[V:1]dc' d2- |
[V:2]F3 G |
[V:3]D3 E |
[V:4]z4 |
[V:1]d_e d^c |
[V:2]A_B AG |
[V:3]FG FE |
[V:4]z4 |
[V:1]d/_e/d/^c/ d/e/d/c/ |
[V:2]A/_B/A/G/ A/B/A/G/ |
[V:3]F/G/F/E/ F/G/F/E/ |
[V:4]z4 |
[V:1]d/_e/d/^c/ d/e/d/c/ |
[V:2]A/_B/A/G/ A/B/A/G/ |
[V:3]F/G/F/E/ F/G/F/E/ |
[V:4]z4 |
[V:1]d2 _e2- |
[V:2]A4- |
[V:3]F4- |
[V:4]z4 |
[V:1]e2 d2 |
[V:2]A4- |
[V:3]F4- |
[V:4]z4 |
[V:1]c4- |
[V:2]A4- |
[V:3]F4- |
[V:4]D/_E/D/^C/ D/E/D/C/ |
[V:1]c4- |
[V:2]A4- |
[V:3]F4- |
[V:4]D/_E/D/^C/ D/E/D/C/ |
[V:1]c4- |
[V:2]A4- |
[V:3]F4- |
[V:4]D2 _E2- |
[V:1]c2 _e2 |
[V:2]A2 F2 |
[V:3]F2 A2 |
[V:4]E2 C2 |
[V:1]d2 zD |
[V:2]G2 z2 |
[V:3]B2 z2 |
[V:4]B,2 z2 |
[V:1]GG GG |
[V:2]DD DD |
[V:3]B,B, B,B, |
[V:4]G,G, G,G, |
[V:1]F>G FD |
[V:2]D4 |
[V:3]C4 |
[V:4]A,4 |
[V:1]GG GG |
[V:2]DD DD |
[V:3]B,B, B,B, |
[V:4]G,G, G,G, |
[V:1]A//B//c3/ zB |
[V:2]A2 zD |
[V:3]D,2 zG, |
[V:4]F,2 zG, |
[V:1]A2 GF |
[V:2]C2 B,A, |
[V:3]C2 D2 |
[V:4]C,2 D,2 |
[V:1]G2 zg |
[V:2]B,2 z2 |
[V:3]G,2 z2 |
[V:4]G,2 z2 |
[V:1]fg ed |
[V:2]z2 B2 |
[V:3]z2 G2- |
[V:4]z4 |
[V:1]^c2 d=f |
[V:2]A2 Az |
[V:3]GE =Fz |
[V:4]z4 |
[V:1]e=f dc |
[V:2]z2 A2 |
[V:3]z2 =F2- |
[V:4]z4 |
[V:1]B2 ce |
[V:2]G2 Gz |
[V:3]FD Ez |
[V:4]z4 |
[V:1]^de cA |
[V:2]z2 E2 |
[V:3]z2 C2 |
[V:4]z2 C2- |
[V:1]F2 Gd- |
[V:2]D3 B- |
[V:3]A,2 G,2 |
[V:4]CA, B,B,, |
[V:1]dc BA |
[V:2]BA GF |
[V:3]C2 D2 |
[V:4]C,2 D,2 |
[V:1]G2 z2 |
[V:2]G2 z2 |
[V:3]G,G z2 |
[V:4]G,,2 zG |
[V:1]z2 B2 |
[V:2]z2 G2- |
[V:3]z2 E2- |
[V:4]FG ED |
[V:1]A2 Az |
[V:2]GE =Fz |
[V:3]E2 Dz |
[V:4]^C2 D=F |
[V:1]z2 A2 |
[V:2]z2 =F2- |
[V:3]z2 D2- |
[V:4]E=F DC |
[V:1]G2 Gz |
[V:2]FD Ez |
[V:3]D2 Cz |
[V:4]B,2 CE |
[V:1]z2 e2- |
[V:2]z2 c2- |
[V:3]z2 cA |
[V:4]^DE CA, |
[V:1]ec'2 b- |
[V:2]ce2 d- |
[V:3]F2 G2 |
[V:4]F,2 G,2 |
[V:1]ba gf |
[V:2]dc BA |
[V:3]C2 D2 |
[V:4]C,2 D,2 |
[V:1]g/a/b/a/ g/f/e/d/ |
[V:2]G4- |
[V:3]B,4 |
[V:4]E,4- |
[V:1]^c4 |
[V:2]GG GG |
[V:3]E4 |
[V:4]E,E, E,E, |
[V:1]c/f/a/g/ f/e/d/c/ |
[V:2]A2 zA |
[V:3]D2 zD |
[V:4]F,2 zF, |
[V:1]B/d/g/f/ e/d/c/B/ |
[V:2]D2 zD |
[V:3]D2 zB, |
[V:4]G,2 zB,, |
[V:1]Ae dF |
[V:2]Ec BA |
[V:3]C2 D2 |
[V:4]C,2 D,2 |
[V:1]G2 zB/c/ |
[V:2]G2 zG/A/ |
[V:3]G,2 z2 |
[V:4]G,,2 z2 |
[V:1]dB cd |
[V:2]BG AB |
[V:3]z4 |
[V:4]z4 |
[V:1]e2 z2 |
[V:2]c2 z2 |
[V:3]z3 A,/B,/ |
[V:4]z3 F,/G,/ |
[V:1]z4 |
[V:2]z4 |
[V:3]CA, B,C |
[V:4]A,F, G,A, |
[V:1]z4 |
[V:2]z4 |
[V:3]D2 z2 |
[V:4]B,2 z2 |
[V:1]F4 |
[V:2]C4 |
[V:3]A,4 |
[V:4]D,4 |
[V:1]G2 z2 |]
[V:2]B,2 z2 |]
[V:3]G,2 z2 |]
[V:4]G,,2 z2 |]

